X:159
T:Goddess. VWMLa.159, The
%%VWML:Anon2-3049-p98-0
F:http://www.vwml.org/record/Anon2/3049/p98
S:Anon. MS, late 18thC, Vaughan Williams Mem. Library
O:England;Yorkshire
Z:vmp/efdss.Simon Wilson. Reviewed PJH 2008.
M:2/4
L:1/8
Q:1/4=160
K:D
DFAd|cBA2|Aceg|fed2|\
ff{f}g2|ee{e}f2|dde2|ccd2||\
e2d/c/B/A/|eecA|a2g/f/e/d/|aafd|\
ff{f}g2|ee{e}f2|dde2|ccd2||
d2fa|a2gf|gedc|d/c/d/e/ dA|\
d2fa|a2gf|gedc|d2d2||\
AA AG/A/|BBB2|c/d/e/f/ g/e/d/c/|d/c/d/e/ dd|\
AA AG/A/|BBB2|c/d/e/f/ g/e/d/c/|d2d2|]
